svg/cybersecurity.svg

<svg xmlns="http://www.w3.org/2000/svg" width="24" height="24" viewBox="0 0 24 24"><title>cybersecurity</title><path d="M12 23a11 11 0 1 1 11-11 11 11 0 0 1-11 11zm0-20a9 9 0 1 0 9 9 9 9 0 0 0-9-9z"/><path d="M15 11V9a3 3 0 0 0-6 0v2a1 1 0 0 0-1 1v4a1 1 0 0 0 1 1h6a1 1 0 0 0 1-1v-4a1 1 0 0 0-1-1zm-4.5-2a1.5 1.5 0 0 1 3 0v2h-3z"/><path fill="none" d="M0 0h24v24H0z"/></svg>

<svg xmlns="http://www.w3.org/2000/svg" width="24" height="24" viewBox="0 0 24 24">
  <title>cybersecurity</title>
  <path d="M12,23A11,11,0,1,1,23,12,11,11,0,0,1,12,23ZM12,3a9,9,0,1,0,9,9A9,9,0,0,0,12,3Z"/>
  <path d="M15,11V9A3,3,0,0,0,9,9v2a1,1,0,0,0-1,1v4a1,1,0,0,0,1,1h6a1,1,0,0,0,1-1V12A1,1,0,0,0,15,11ZM10.5,9a1.5,1.5,0,0,1,3,0v2h-3Z"/>
  <rect width="24" height="24" fill="none"/>
</svg>
